X:2613
T:Holeywell's Hornpipe
O:england
R:Hornpipe
M:4/4
N:in F of H
L:1/8
K:G
d2 |\
d2dg edcB | d2dg edcA | EGBG EGBG | EGBG cBAG |\
d2dg edcB | d2dg fedc | gfga ecAF | G2G2 G2 :|
|:d2|\
d2de dBGB | c2e2 e2AB | c2cd cBAG | A2AB cdef |\
g2ga fdeg | fdeg gfga | gfga ecAF | G2G2 G2:|


